assets/img/Brands/tiktok-logo.svg

<svg width="34" height="33" viewBox="0 0 34 33" fill="none" xmlns="http://www.w3.org/2000/svg">
<g opacity="0.4" clip-path="url(#clip0_19_539)">
<rect width="32.4969" height="32.4969" transform="translate(0.63623 0.345215)" fill="white" style="mix-blend-mode:color-burn"/>
<path fill-rule="evenodd" clip-rule="evenodd" d="M3.88592 0.345215H29.8834C31.6783 0.345215 33.1331 1.80003 33.1331 3.5949V29.5924C33.1331 31.3873 31.6783 32.8421 29.8834 32.8421H3.88592C2.09105 32.8421 0.63623 31.3873 0.63623 29.5924V3.5949C0.63623 1.80003 2.09105 0.345215 3.88592 0.345215Z" fill="#010101"/>
<path fill-rule="evenodd" clip-rule="evenodd" d="M21.0413 30.2421C22.0301 30.2421 22.8317 29.447 22.8317 28.4662C22.8317 27.4854 22.0301 26.6902 21.0413 26.6902H20.7715C21.7604 26.6902 22.562 27.4854 22.562 28.4662C22.562 29.447 21.7604 30.2421 20.7715 30.2421H21.0413Z" fill="#C1C9CF"/>
<path fill-rule="evenodd" clip-rule="evenodd" d="M20.7473 26.6902H20.4776C19.4887 26.6902 18.687 27.4854 18.687 28.4662C18.687 29.447 19.4887 30.2421 20.4776 30.2421H20.7473C19.7583 30.2421 18.9567 29.447 18.9567 28.4662C18.9567 27.4854 19.7583 26.6902 20.7473 26.6902Z" fill="#C1C9CF"/>
<path d="M20.7599 29.3299C21.2408 29.3299 21.6307 28.9433 21.6307 28.4664C21.6307 27.9895 21.2408 27.6029 20.7599 27.6029C20.279 27.6029 19.8891 27.9895 19.8891 28.4664C19.8891 28.9433 20.279 29.3299 20.7599 29.3299Z" fill="#010101"/>
<path fill-rule="evenodd" clip-rule="evenodd" d="M7.13541 25.8877V26.7879H8.18986V30.218H9.24471V26.8122H10.103L10.3973 25.8877H7.13541ZM15.7685 25.8877V26.7879H16.823V30.218H17.8778V26.8122H18.7361L19.0304 25.8877H15.7685ZM10.5937 26.3985C10.5937 26.1165 10.8239 25.8877 11.1083 25.8877C11.393 25.8877 11.6235 26.1165 11.6235 26.3985C11.6235 26.6806 11.3931 26.9094 11.1083 26.9094C10.8239 26.9093 10.5937 26.6806 10.5937 26.3985ZM10.5937 27.2744H11.6235V30.218H10.5937V27.2744ZM12.0651 25.8877V30.218H13.0952V29.099L13.4141 28.8068L14.4195 30.2423H15.5231L14.076 28.1501L15.3758 26.885H14.1251L13.0952 27.9067V25.8877H12.0651ZM23.1751 25.8877V30.218H24.2054V29.099L24.5241 28.8068L25.5298 30.2423H26.6335L25.1864 28.1501L26.4863 26.885H25.2355L24.2054 27.9067V25.8877H23.1751Z" fill="white"/>
<path fill-rule="evenodd" clip-rule="evenodd" d="M21.5859 10.8983C23.0085 11.9146 24.7513 12.5127 26.6336 12.5127V8.89243C26.2773 8.89257 25.922 8.85541 25.5735 8.78155V11.6313C23.6914 11.6313 21.9488 11.0332 20.5258 10.0168V17.4047C20.5258 21.1005 17.5283 24.0963 13.8308 24.0963C12.4513 24.0963 11.1689 23.6794 10.1037 22.9645C11.3195 24.2069 13.0149 24.9777 14.8906 24.9777C18.5884 24.9777 21.586 21.9819 21.586 18.286V10.8983H21.5859ZM22.8936 7.24588C22.1665 6.45205 21.6892 5.42606 21.5859 4.29179V3.82617H20.5813C20.8342 5.26773 21.6966 6.49936 22.8936 7.24588ZM12.4423 20.1286C12.0362 19.5962 11.8166 18.945 11.8176 18.2754C11.8176 16.5851 13.1887 15.2146 14.8802 15.2146C15.1954 15.2144 15.5088 15.2628 15.8092 15.358V11.6569C15.4582 11.6088 15.1039 11.5884 14.7496 11.5959V14.4767C14.449 14.3815 14.1355 14.3331 13.8202 14.3333C12.1286 14.3333 10.7577 15.7038 10.7577 17.3943C10.7577 18.5895 11.443 19.6245 12.4423 20.1286Z" fill="#C1C9CF"/>
<path fill-rule="evenodd" clip-rule="evenodd" d="M20.5266 10.0168C21.9495 11.0332 23.6922 11.6313 25.5743 11.6313V8.78155C24.5237 8.55798 23.5936 8.00917 22.8943 7.24588C21.6974 6.49936 20.8349 5.26773 20.5821 3.82617H17.9435V18.2858C17.9375 19.9715 16.5687 21.3364 14.8808 21.3364C13.8862 21.3364 13.0025 20.8626 12.4429 20.1286C11.4436 19.6245 10.7583 18.5895 10.7583 17.3943C10.7583 15.7038 12.1293 14.3333 13.8208 14.3333C14.1448 14.3333 14.4572 14.3838 14.7502 14.4767V11.5959C11.1177 11.6709 8.19623 14.6375 8.19623 18.286C8.19623 20.1072 8.92377 21.7583 10.1044 22.9646C11.1697 23.6795 12.452 24.0964 13.8316 24.0964C17.5291 24.0964 20.5266 21.1005 20.5266 17.4048V10.0168Z" fill="white"/>
<path fill-rule="evenodd" clip-rule="evenodd" d="M25.5733 8.78164V8.01108C24.6259 8.01251 23.6972 7.74732 22.8934 7.24584C23.6049 8.02444 24.5418 8.56137 25.5733 8.78164ZM20.5812 3.82626C20.557 3.68851 20.5385 3.54983 20.5257 3.41056V2.94495H16.8824V17.4048C16.8765 19.0903 15.5079 20.4552 13.8199 20.4552C13.3242 20.4552 12.8564 20.3377 12.442 20.1286C13.0016 20.8627 13.8853 21.3365 14.8799 21.3365C16.5677 21.3365 17.9366 19.9716 17.9426 18.2859V3.82626H20.5812ZM14.7494 11.596V10.7757C14.445 10.734 14.1381 10.7132 13.8308 10.7134C10.1329 10.7134 7.13541 13.7093 7.13541 17.4048C7.13541 19.7216 8.31348 21.7635 10.1037 22.9646C8.92299 21.7583 8.19545 20.1072 8.19545 18.2859C8.19545 14.6376 11.1168 11.671 14.7494 11.596Z" fill="#C1C9CF"/>
<path fill-rule="evenodd" clip-rule="evenodd" d="M20.7718 30.2421C21.7607 30.2421 22.5624 29.447 22.5624 28.4662C22.5624 27.4854 21.7607 26.6902 20.7718 26.6902H20.7474C19.7586 26.6902 18.957 27.4854 18.957 28.4662C18.957 29.447 19.7586 30.2421 20.7474 30.2421H20.7718ZM19.889 28.4662C19.889 27.9891 20.2789 27.6027 20.7599 27.6027C21.2404 27.6027 21.6304 27.9891 21.6304 28.4662C21.6304 28.9433 21.2404 29.33 20.7599 29.33C20.2789 29.3298 19.889 28.9433 19.889 28.4662Z" fill="white"/>
</g>
<defs>
<clipPath id="clip0_19_539">
<rect width="32.4969" height="32.4969" fill="white" transform="translate(0.63623 0.345215)"/>
</clipPath>
</defs>
</svg>

<svg width="34" height="33" fill="none" xmlns="http://www.w3.org/2000/svg"><g opacity=".4" clip-path="url(#clip0_19_539)"><path fill="#fff" style="mix-blend-mode:color-burn" d="M.636.345h32.497v32.497H.636z"/><path fill-rule="evenodd" clip-rule="evenodd" d="M3.886.345h25.997a3.25 3.25 0 013.25 3.25v25.997a3.25 3.25 0 01-3.25 3.25H3.886a3.25 3.25 0 01-3.25-3.25V3.595a3.25 3.25 0 013.25-3.25z" fill="#010101"/><path fill-rule="evenodd" clip-rule="evenodd" d="M21.041 30.242c.99 0 1.79-.795 1.79-1.776 0-.98-.8-1.776-1.79-1.776h-.27c.99 0 1.791.795 1.791 1.776s-.802 1.776-1.79 1.776h.27zm-.294-3.552h-.27c-.988 0-1.79.795-1.79 1.776s.802 1.776 1.79 1.776h.27c-.989 0-1.79-.795-1.79-1.776 0-.98.801-1.776 1.79-1.776z" fill="#C1C9CF"/><path d="M20.76 29.33c.48 0 .87-.387.87-.864a.867.867 0 00-.87-.863c-.481 0-.87.386-.87.863s.389.864.87.864z" fill="#010101"/><path fill-rule="evenodd" clip-rule="evenodd" d="M7.135 25.888v.9H8.19v3.43h1.055v-3.406h.858l.294-.924H7.135zm8.633 0v.9h1.055v3.43h1.055v-3.406h.858l.294-.924h-3.262zm-5.174.51c0-.282.23-.51.514-.51.285 0 .515.228.515.51 0 .283-.23.511-.515.511a.513.513 0 01-.514-.51zm0 .876h1.03v2.944h-1.03v-2.944zm1.471-1.386v4.33h1.03v-1.119l.32-.292 1.005 1.435h1.103l-1.447-2.092 1.3-1.265h-1.25l-1.03 1.022v-2.02h-1.03zm11.11 0v4.33h1.03v-1.119l.32-.292 1.005 1.435h1.104l-1.448-2.092 1.3-1.265h-1.25l-1.03 1.022v-2.02h-1.03z" fill="#fff"/><path fill-rule="evenodd" clip-rule="evenodd" d="M21.586 10.898a8.654 8.654 0 005.048 1.615v-3.62c-.357 0-.712-.038-1.06-.111v2.85a8.655 8.655 0 01-5.048-1.615v7.388a6.693 6.693 0 01-6.695 6.691 6.666 6.666 0 01-3.727-1.131 6.677 6.677 0 004.787 2.013 6.693 6.693 0 006.695-6.692v-7.388zm1.308-3.652a5.044 5.044 0 01-1.308-2.954v-.466H20.58a5.069 5.069 0 002.313 3.42zM12.442 20.129a3.062 3.062 0 013.367-4.77v-3.702a6.752 6.752 0 00-1.06-.061v2.88a3.062 3.062 0 00-2.307 5.652z" fill="#C1C9CF"/><path fill-rule="evenodd" clip-rule="evenodd" d="M20.527 10.017a8.655 8.655 0 005.047 1.614v-2.85a5.067 5.067 0 01-2.68-1.535 5.068 5.068 0 01-2.312-3.42h-2.639v14.46a3.062 3.062 0 01-5.5 1.843 3.06 3.06 0 012.307-5.652v-2.881a6.693 6.693 0 00-4.646 11.369 6.666 6.666 0 003.728 1.131 6.693 6.693 0 006.695-6.691v-7.388z" fill="#fff"/><path fill-rule="evenodd" clip-rule="evenodd" d="M25.573 8.782v-.77a5.049 5.049 0 01-2.68-.766 5.062 5.062 0 002.68 1.536zm-4.992-4.956a5.1 5.1 0 01-.055-.415v-.466h-3.644v14.46a3.062 3.062 0 01-4.44 2.724 3.062 3.062 0 005.5-1.843V3.826h2.64zm-5.832 7.77v-.82a6.693 6.693 0 00-7.614 6.63 6.684 6.684 0 002.969 5.559 6.693 6.693 0 014.646-11.369z" fill="#C1C9CF"/><path fill-rule="evenodd" clip-rule="evenodd" d="M20.772 30.242c.989 0 1.79-.795 1.79-1.776 0-.98-.801-1.776-1.79-1.776h-.025c-.988 0-1.79.795-1.79 1.776s.802 1.776 1.79 1.776h.025zm-.883-1.776c0-.477.39-.863.87-.863.481 0 .871.386.871.863s-.39.864-.87.864a.867.867 0 01-.871-.864z" fill="#fff"/></g><defs><clipPath id="clip0_19_539"><path fill="#fff" transform="translate(.636 .345)" d="M0 0h32.497v32.497H0z"/></clipPath></defs></svg>
